src/assets/icons/payments/solar_share-bold.svg

<svg width="20" height="20" viewBox="0 0 20 20" fill="none" xmlns="http://www.w3.org/2000/svg">
  <g clip-path="url(#a)">
    <path fill-rule="evenodd" clip-rule="evenodd" d="M11.9697 3.333c0-1.84 1.5-3.33299803 3.348-3.33299803.4387-.00105183.8734.08432453 1.2791.25125403.4058.16693.7747.412144 1.0857.721642.3109.309502.5579.677222.7268 1.082162.1689.40495.2563.83919.2574 1.27794 0 1.841-1.5 3.334-3.349 3.334-.4434.00054-.8825-.08705-1.2918-.25769-.4093-.17064-.7805-.42093-1.0922-.73631L8.29868 8.82899c.12909.643.06578 1.30981-.182 1.91701l5.08202 3.34c.5985-.4882 1.3476-.7542 2.12-.753.4387-.0009.8734.0846 1.2791.2516.4057.1671.7745.4124 1.0854.722.3109.3096.5577.6774.7265 1.0824.1687.405.2561.8392.257 1.278 0 1.84-1.5 3.333-3.349 3.333-.8859.0018-1.7363-.3482-2.3642-.9733-.6278-.625-.9817-1.4738-.9838-2.3597-.0008-.4674.0977-.9296.289-1.356L7.21668 12c-.61059.5309-1.39287.8226-2.202.821-.43878.001-.87347-.0844-1.27923-.2514-.40576-.167-.77464-.4123-1.08555-.7219-.31092-.3096-.55778-.6775-.72649-1.0825-.1687-.4051-.25594-.83942-.25672-1.27821.00092-.43869.08825-.87292.25701-1.27786.16876-.40494.41565-.77267.72655-1.08218.3109-.30951.67974-.55474 1.08543-.72168.4057-.16694.84031-.25232 1.279-.25127 1.064 0 2.01.493 2.623 1.261l4.49302-3.059c-.1069-.33047-.1612-.67567-.161-1.023Z" fill="#9EA8DD"/>
  </g>
  <defs>
    <clipPath id="a">
      <path fill="#fff" d="M0 0h20v20H0z"/>
    </clipPath>
  </defs>
</svg>

<svg width="20" height="20" viewBox="0 0 20 20" fill="none" xmlns="http://www.w3.org/2000/svg">
<g clip-path="url(#clip0_508_166)">
<path fill-rule="evenodd" clip-rule="evenodd" d="M11.9697 3.333C11.9697 1.493 13.4697 1.97232e-06 15.3177 1.97232e-06C15.7564 -0.00104986 16.1911 0.0843265 16.5968 0.251256C17.0026 0.418186 17.3715 0.6634 17.6825 0.972898C17.9934 1.2824 18.2404 1.65012 18.4093 2.05506C18.5782 2.46001 18.6656 2.89425 18.6667 3.333C18.6667 5.174 17.1667 6.667 15.3177 6.667C14.8743 6.66754 14.4352 6.57995 14.0259 6.40931C13.6166 6.23867 13.2454 5.98838 12.9337 5.673L8.29868 8.82899C8.42777 9.47199 8.36446 10.1388 8.11668 10.746L13.1987 14.086C13.7972 13.5978 14.5463 13.3318 15.3187 13.333C15.7574 13.3321 16.1921 13.4176 16.5978 13.5846C17.0035 13.7517 17.3723 13.997 17.6832 14.3066C17.9941 14.6162 18.2409 14.984 18.4097 15.389C18.5784 15.794 18.6658 16.2282 18.6667 16.667C18.6667 18.507 17.1667 20 15.3177 20C14.4318 20.0018 13.5814 19.6518 12.9535 19.0267C12.3257 18.4017 11.9718 17.5529 11.9697 16.667C11.9689 16.1996 12.0674 15.7374 12.2587 15.311L7.21668 12C6.60609 12.5309 5.82381 12.8226 5.01468 12.821C4.5759 12.822 4.14121 12.7366 3.73545 12.5696C3.32969 12.4026 2.96081 12.1573 2.6499 11.8477C2.33898 11.5381 2.09212 11.1702 1.92341 10.7652C1.75471 10.3601 1.66747 9.92578 1.66669 9.48699C1.66761 9.0483 1.75494 8.61407 1.9237 8.20913C2.09246 7.80419 2.33935 7.43646 2.65025 7.12695C2.96115 6.81744 3.32999 6.57221 3.73568 6.40527C4.14138 6.23833 4.57599 6.15295 5.01468 6.154C6.07868 6.154 7.02468 6.647 7.63768 7.415L12.1307 4.356C12.0238 4.02553 11.9695 3.68033 11.9697 3.333Z" fill="#9EA8DD"/>
</g>
<defs>
<clipPath id="clip0_508_166">
<rect width="20" height="20" fill="white"/>
</clipPath>
</defs>
</svg>
